public/library/lineascan-text-dark.svg

<svg width="422" height="122" viewBox="0 0 422 122" fill="none" xmlns="http://www.w3.org/2000/svg">
<g clip-path="url(#clip0_4901_1889)">
<path d="M110.601 120.125H93.0664V34.7982H110.601V120.125Z" fill="white"/>
<path d="M173.958 33.1233C183.637 33.1233 191.545 36.5173 197.672 43.3053C203.79 50.0934 206.858 58.7239 206.858 69.188V120.116H189.323V71.8591C189.323 65.2915 187.208 59.8611 182.976 55.5767C178.745 51.2923 173.517 49.1501 167.284 49.1501C160.267 49.1501 154.537 51.2923 150.085 55.5767C145.633 59.8611 143.403 65.2915 143.403 71.8591V120.116H125.869V34.7983H143.403V56.8373C145.739 49.4939 149.609 43.702 155.013 39.4705C160.408 35.239 166.729 33.1233 173.967 33.1233H173.958Z" fill="white"/>
<path d="M261.524 33.1233C275.215 33.1233 286.349 38.0248 294.918 47.8189C303.487 57.6219 306.995 69.4701 305.435 83.39H234.804C236.029 90.2926 239.203 95.8905 244.325 100.175C249.447 104.459 255.618 106.602 262.855 106.602C268.418 106.602 273.399 105.235 277.798 102.511C282.197 99.787 285.617 96.0845 288.068 91.4034L302.764 97.9181C298.982 105.156 293.578 110.939 286.569 115.285C279.561 119.631 271.486 121.8 262.353 121.8C249.553 121.8 238.806 117.568 230.123 109.114C221.44 100.66 217.094 90.1339 217.094 77.554C217.094 64.9741 221.351 54.4307 229.867 45.9059C238.383 37.3901 248.927 33.1321 261.515 33.1321L261.524 33.1233ZM261.524 48.3214C255.062 48.3214 249.473 50.2961 244.739 54.2543C240.005 58.2037 236.858 63.3521 235.307 69.6993H287.742C286.296 63.3521 283.202 58.2037 278.477 54.2543C273.743 50.3049 268.092 48.3214 261.524 48.3214Z" fill="white"/>
<path d="M353.912 33.1233C364.156 33.1233 372.504 35.7944 378.957 41.1367C385.41 46.479 388.646 54.1662 388.646 64.1807V120.125H371.111V97.4156C365.875 113.672 355.358 121.8 339.551 121.8C332.199 121.8 326.081 119.605 321.18 115.206C316.278 110.807 313.836 105.05 313.836 97.9269C313.836 89.5785 316.781 83.3106 322.687 79.1408C328.585 74.9711 336.104 72.3793 345.229 71.3743L361.758 69.6993C367.991 69.1439 371.111 66.3582 371.111 61.3509C371.111 57.234 369.524 53.9458 366.351 51.5039C363.177 49.0531 359.034 47.8278 353.912 47.8278C348.79 47.8278 344.25 49.1677 340.636 51.8389C337.021 54.51 334.712 58.4065 333.707 63.5284L316.34 59.3498C317.9 51.3364 322.07 44.9627 328.867 40.2287C335.655 35.5035 344.003 33.1321 353.912 33.1321V33.1233ZM345.229 107.598C352.466 107.598 358.584 105.173 363.592 100.334C368.599 95.4938 371.102 89.843 371.102 83.3812V78.7089C369.771 80.9392 366.536 82.3233 361.414 82.8787L345.22 84.8798C340.988 85.444 337.621 86.687 335.117 88.6353C332.613 90.5835 331.362 93.2282 331.362 96.5693C331.362 99.9105 332.613 102.582 335.117 104.583C337.621 106.584 340.988 107.589 345.22 107.589L345.229 107.598Z" fill="white"/>
<path d="M80.9891 120.125H0V34.7982H18.5304V103.595H80.9891V120.125Z" fill="white"/>
<path d="M405.175 33.1233C414.304 33.1233 421.704 25.7229 421.704 16.594C421.704 7.46511 414.304 0.0646973 405.175 0.0646973C396.046 0.0646973 388.646 7.46511 388.646 16.594C388.646 25.7229 396.046 33.1233 405.175 33.1233Z" fill="white"/>
</g>
<defs>
<clipPath id="clip0_4901_1889">
<rect width="422" height="122" fill="white"/>
</clipPath>
</defs>
</svg>

<svg xmlns="http://www.w3.org/2000/svg" width="422" height="122" fill="none" viewBox="0 0 422 122"><g fill="#fff" clip-path="url(#a)"><path d="M110.601 120.125H93.066V34.798h17.535zM173.958 33.123c9.679 0 17.587 3.394 23.714 10.182 6.118 6.788 9.186 15.419 9.186 25.883v50.928h-17.535V71.859c0-6.567-2.115-11.998-6.347-16.282q-6.345-6.427-15.692-6.427c-7.017 0-12.747 2.142-17.199 6.427-4.452 4.284-6.682 9.715-6.682 16.282v48.257h-17.534V34.798h17.534v22.04c2.336-7.344 6.206-13.136 11.61-17.367 5.395-4.232 11.716-6.348 18.954-6.348zM261.524 33.123c13.691 0 24.825 4.902 33.394 14.696 8.569 9.803 12.077 21.651 10.517 35.571h-70.631q1.838 10.356 9.521 16.785c5.122 4.284 11.293 6.427 18.53 6.427 5.563 0 10.544-1.367 14.943-4.091s7.819-6.426 10.27-11.108l14.696 6.515c-3.782 7.238-9.186 13.021-16.195 17.367-7.008 4.346-15.083 6.515-24.216 6.515-12.8 0-23.547-4.232-32.23-12.686s-13.029-18.98-13.029-31.56 4.257-23.123 12.773-31.648c8.516-8.516 19.06-12.774 31.648-12.774zm0 15.198c-6.462 0-12.051 1.975-16.785 5.933-4.734 3.95-7.881 9.098-9.432 15.445h52.435c-1.446-6.347-4.54-11.495-9.265-15.445-4.734-3.95-10.385-5.933-16.953-5.933M353.912 33.123q15.366 0 25.045 8.014c6.453 5.342 9.689 13.03 9.689 23.044v55.944h-17.535v-22.71c-5.236 16.257-15.753 24.385-31.56 24.385-7.352 0-13.47-2.195-18.371-6.594-4.902-4.399-7.344-10.156-7.344-17.28 0-8.347 2.945-14.615 8.851-18.785 5.898-4.17 13.417-6.762 22.542-7.767l16.529-1.675q9.351-.834 9.353-8.348c0-4.117-1.587-7.405-4.76-9.847-3.174-2.45-7.317-3.676-12.439-3.676s-9.662 1.34-13.276 4.01q-5.422 4.008-6.929 11.69L316.34 59.35c1.56-8.014 5.73-14.387 12.527-19.121 6.788-4.725 15.136-7.097 25.045-7.097zm-8.683 74.475c7.237 0 13.355-2.425 18.363-7.264q7.51-7.26 7.51-16.953V78.71c-1.331 2.23-4.566 3.614-9.688 4.17l-16.194 2c-4.232.565-7.599 1.808-10.103 3.756q-3.756 2.922-3.755 7.934t3.755 8.014c2.504 2.001 5.871 3.006 10.103 3.006zM80.99 120.125H0V34.798h18.53v68.797h62.46zM405.175 33.123c9.129 0 16.529-7.4 16.529-16.529s-7.4-16.53-16.529-16.53-16.529 7.401-16.529 16.53 7.4 16.53 16.529 16.53"/></g><defs><clipPath id="a"><path fill="#fff" d="M0 0h422v122H0z"/></clipPath></defs></svg>
